X: 4
T: Sporting Paddy
R: reel
M: 4/4
L: 1/8
K: Ador
EA (3AAA GABG | EAAB GEDF | EAAB GABd |edge dBAG |
EA (3AAA GABG | EAAB GEDF | EAAB GABd |edge d3 ||
e | ge (3eee gede | ge (3eee a2 ba | ge (3eee gedg| efge d3
e | ge (3eee gede | ge (3eee a2 ga | (3bag af gedg | efge dBAG |]


Tune 430	Setting 27958

